X: 29699
T: Nova Scotia, The
R: barndance
M: 4/4
K: Gmajor
|:B>c|d>ed>B G2 d>g|(3fgf e2 e2 A>B|c>dc>B A2 (3Bcd|(3efe d2 B>^AB>c|
d2 d>B G>Bd>g|f2 e2 a2- a>g|f>gf>e d>c (3cBA|1 G2 g2 G2:|2 G>gd>B G2- G3/2||
|:A/|B2 d2 d>^cd>e|(3ded c2 c>BA>B|c2 e2 e>^de>f|(3efe d2 B2- B>c|
d2- d>e f2 g2|1 (3gag f2 f2- f>g|(3fgf e2 e>^de>f|(3efe d2 B2- B3/2:|
[2 a2 g2 e2- e>g|f>gf>e d>cB>A|G2 g2 G2||

